assets/img/templates/pieprogress/circle3.svg

<svg height="120" viewBox="0 0 105 120" width="105" xmlns="http://www.w3.org/2000/svg" xmlns:xlink="http://www.w3.org/1999/xlink"><defs><path id="a" d="m90.6469436 63.0953659c0 22.696379-18.5012216 41.0955051-41.323402 41.0955051-22.8223201 0-41.3235416-18.3991261-41.3235416-41.0955051s18.5012215-41.0953659 41.3235416-41.0953659c22.8221804 0 41.323402 18.3989869 41.323402 41.0953659"/><filter id="b" height="323.9%" width="322.6%" x="-111.3%" y="-103.4%"><feMorphology in="SourceAlpha" operator="dilate" radius="18.5" result="shadowSpreadOuter1"/><feOffset dx="0" dy="7" in="shadowSpreadOuter1" result="shadowOffsetOuter1"/><feGaussianBlur in="shadowOffsetOuter1" result="shadowBlurOuter1" stdDeviation="11"/><feColorMatrix in="shadowBlurOuter1" type="matrix" values="0 0 0 0 0.786047173   0 0 0 0 0.793092668   0 0 0 0 0.866196784  0 0 0 1 0"/></filter><linearGradient id="c" x1="3.689221%" x2="100%" y1=".55031%" y2="99.44969%"><stop offset="0" stop-color="#887afa"/><stop offset="1" stop-color="#da3a3a"/></linearGradient></defs><g fill="none" fill-rule="evenodd"><path d="m0 0h105v120h-105z" fill="#fff"/><path d="m0 0h105v120h-105z" fill="#fff"/><use fill="#000" filter="url(#b)" xlink:href="#a"/><use fill="#fff" fill-rule="evenodd" xlink:href="#a"/><path d="m48.8775405 16.1810853c26.1482657 0 47.3456875 21.0804475 47.3456875 47.0844185 0 .2321786-.1892623.4203966-.4227293.4203966s-.4227294-.188218-.4227294-.4203966c0-25.5396137-20.8188971-46.2436253-46.5002288-46.2436253-.233467 0-.4227294-.188218-.4227294-.4203966s.1892624-.4203966.4227294-.4203966z" fill="url(#c)" fill-rule="nonzero"/><g transform="translate(28 54)"><path d="m4.36837648 13.6851923c1.21447062 0 2.19038452-.3354214 2.92774168-1.0062642.73735717-.6708427 1.10603575-1.5734312 1.10603575-2.70776529 0-.87819416-.24940022-1.59477619-.74820065-2.14974611-.49880044-.55496992-1.19123458-.93308129-2.07730244-1.13433412.77453484-.23174568 1.3895155-.62510348 1.84494199-1.1800734.45542648-.55496991.68313972-1.18617196.68313972-1.89360614 0-1.10993984-.34389347-1.98965864-1.0316804-2.6391564-.68778694-.64949776-1.61722874-.97424664-2.78832541-.97424664-.74355345 0-1.42204596.15551355-2.03547755.46654065-.61343159.31102709-1.09364319.74707488-1.4406348 1.30814337s-.52048741 1.19531983-.52048741 1.90275401h.50189857c0-.95137701.32840277-1.71979689.98520832-2.30525966.65680554-.58546277 1.49330316-.87819416 2.50949287-.87819416 1.04097482 0 1.8542364.27748496 2.43978473.83245488.58554834.55496992.87832251 1.30509409.87832251 2.25037252 0 .82940559-.3268537 1.51244549-.98056111 2.0491197-.6537074.5366742-1.51034293.81415916-2.56990658.83245488h-1.13391901v.51227992h1.05956366c1.28262969.00609857 2.25699452.2683371 2.92309447.7867156.66609996.51837849.99914994 1.26850267.99914994 2.25037249 0 .994067-.311363 1.7731594-.93408901 2.3372772s-1.48865595.8461766-2.59778984.8461766c-1.11533017 0-2.03857569-.3216996-2.76973658-.9650987-.73116088-.6433992-1.09674133-1.4529845-1.09674133-2.42875575h-.50189857c0 .75012415.17659394 1.41181905.52978183 1.98508475.35318788.5732656.87677343 1.0337077 1.57075665 1.3813262.69398321.3476185 1.44992921.5214278 2.267838.5214278zm6.29232102 2.1497461c.6320204-.6647442.9604232-1.4819527.9852083-2.4516254v-1.3355869h-.5018986l-.0092944 1.5276919c-.0433739.6769413-.3160102 1.3325376-.8179088 1.966789zm5.7625392-2.3327033 5.9577219-13.00825089v-.31102709h-8.6438087v.49398421h8.0675548l-5.892661 12.82529377zm12.7240583.1829572c1.2268632 0 2.1686975-.3765868 2.8255031-1.1297602.6568055-.7531735.9852083-1.8524408.9852083-3.29780204 0-1.24410839-.3624823-2.24427396-1.0874469-3.0004967-.7249646-.75622275-1.6946823-1.13433412-2.9091529-1.13433412-.5080948 0-1.0270332.0823307-1.556815.24699211-.5297818.1646614-.955776.37811137-1.2779825.6403499l.5483707-5.34234778h6.1436103v-.48483635h-6.5990368l-.6320204 6.34861191.3810711.14636569c.3841693-.36591423.8179088-.63425133 1.3012185-.8050113.4833098-.17075998 1.0502693-.25613997 1.7008785-.25613997 1.0595637 0 1.9038067.3323721 2.5327289.99711628.6289223.66474419.9433835 1.5520862.9433835 2.66202604 0 1.28679833-.2710872 2.26104503-.8132616 2.92273993s-1.3709267.9925423-2.4862568.9925423c-1.0471711 0-1.8681781-.2713863-2.4630208-.8141591-.5948428-.5427728-.9418344-1.335587-1.0409748-2.37844253h-.511193c.0929442 1.15262983.4957023 2.05521823 1.2082743 2.70776533.7125721.652547 1.6482102.9788206 2.8069143.9788206zm10.0379715 0c1.2144706 0 2.1903845-.3354214 2.9277416-1.0062642.7373572-.6708427 1.1060358-1.5734312 1.1060358-2.70776529 0-.87819416-.2494002-1.59477619-.7482007-2.14974611-.4988004-.55496992-1.1912345-.93308129-2.0773024-1.13433412.7745348-.23174568 1.3895155-.62510348 1.844942-1.1800734.4554265-.55496991.6831397-1.18617196.6831397-1.89360614 0-1.10993984-.3438935-1.98965864-1.0316804-2.6391564s-1.6172287-.97424664-2.7883254-.97424664c-.7435534 0-1.422046.15551355-2.0354776.46654065-.6134315.31102709-1.0936431.74707488-1.4406348 1.30814337-.3469916.56106849-.5204874 1.19531983-.5204874 1.90275401h.5018986c0-.95137701.3284028-1.71979689.9852083-2.30525966.6568056-.58546277 1.4933032-.87819416 2.5094929-.87819416 1.0409748 0 1.8542364.27748496 2.4397847.83245488.5855484.55496992.8783225 1.30509409.8783225 2.25037252 0 .82940559-.3268537 1.51244549-.9805611 2.0491197-.6537074.5366742-1.5103429.81415916-2.5699066.83245488h-1.133919v.51227992h1.0595637c1.2826297.00609857 2.2569945.2683371 2.9230945.7867156.6660999.51837849.9991499 1.26850267.9991499 2.25037249 0 .994067-.311363 1.7731594-.934089 2.3372772s-1.488656.8461766-2.5977898.8461766c-1.1153302 0-2.0385757-.3216996-2.7697366-.9650987-.7311609-.6433992-1.0967413-1.4529845-1.0967413-2.42875575h-.5018986c0 .75012415.1765939 1.41181905.5297818 1.98508475.3531879.5732656.8767734 1.0337077 1.5707567 1.3813262.6939832.3476185 1.4499292.5214278 2.267838.5214278z" fill="#304254" fill-rule="nonzero"/><text fill="#849cb4" font-family="IBMPlexSerif-Light, IBM Plex Serif" font-size="7" font-weight="300"><tspan x="14.188368" y="26.362636">Title</tspan></text></g></g></svg>

<?xml version="1.0" encoding="UTF-8"?>
<svg width="105px" height="120px" viewBox="0 0 105 120" version="1.1" xmlns="http://www.w3.org/2000/svg" xmlns:xlink="http://www.w3.org/1999/xlink">
    <!-- Generator: Sketch 61.1 (89650) - https://sketch.com -->
    <title>circle3</title>
    <desc>Created with Sketch.</desc>
    <defs>
        <path d="M90.6469436,63.0953659 C90.6469436,85.7917449 72.145722,104.190871 49.3235416,104.190871 C26.5012215,104.190871 8,85.7917449 8,63.0953659 C8,40.3989869 26.5012215,22 49.3235416,22 C72.145722,22 90.6469436,40.3989869 90.6469436,63.0953659" id="path-1"></path>
        <filter x="-111.3%" y="-103.4%" width="322.6%" height="323.9%" filterUnits="objectBoundingBox" id="filter-2">
            <feMorphology radius="18.5" operator="dilate" in="SourceAlpha" result="shadowSpreadOuter1"></feMorphology>
            <feOffset dx="0" dy="7" in="shadowSpreadOuter1" result="shadowOffsetOuter1"></feOffset>
            <feGaussianBlur stdDeviation="11" in="shadowOffsetOuter1" result="shadowBlurOuter1"></feGaussianBlur>
            <feColorMatrix values="0 0 0 0 0.786047173   0 0 0 0 0.793092668   0 0 0 0 0.866196784  0 0 0 1 0" type="matrix" in="shadowBlurOuter1"></feColorMatrix>
        </filter>
        <linearGradient x1="3.68922114%" y1="0.550310276%" x2="100%" y2="99.4496897%" id="linearGradient-3">
            <stop stop-color="#887AFA" offset="0%"></stop>
            <stop stop-color="#DA3A3A" offset="100%"></stop>
        </linearGradient>
    </defs>
    <g id="circle3" stroke="none" stroke-width="1" fill="none" fill-rule="evenodd">
        <rect fill="#FFFFFF" x="0" y="0" width="105" height="120"></rect>
        <rect id="Rectangle" fill="#FFFFFF" x="0" y="0" width="105" height="120"></rect>
        <g id="Fill-1">
            <use fill="black" fill-opacity="1" filter="url(#filter-2)" xlink:href="#path-1"></use>
            <use fill="#FFFFFF" fill-rule="evenodd" xlink:href="#path-1"></use>
        </g>
        <path d="M48.8775405,16.1810853 C75.0258062,16.1810853 96.223228,37.2615328 96.223228,63.2655038 C96.223228,63.4976824 96.0339657,63.6859004 95.8004987,63.6859004 C95.5670317,63.6859004 95.3777693,63.4976824 95.3777693,63.2655038 C95.3777693,37.7258901 74.5588722,17.0218785 48.8775405,17.0218785 C48.6440735,17.0218785 48.4548111,16.8336605 48.4548111,16.6014819 C48.4548111,16.3693033 48.6440735,16.1810853 48.8775405,16.1810853 Z" id="Stroke-4" fill="url(#linearGradient-3)" fill-rule="nonzero"></path>
        <g id="Group" transform="translate(28.000000, 54.000000)">
            <path d="M4.36837648,13.6851923 C5.5828471,13.6851923 6.558761,13.3497709 7.29611816,12.6789281 C8.03347533,12.0080854 8.40215391,11.1054969 8.40215391,9.97116281 C8.40215391,9.09296865 8.15275369,8.37638662 7.65395326,7.8214167 C7.15515282,7.26644678 6.46271868,6.88833541 5.57665082,6.68708258 C6.35118566,6.4553369 6.96616632,6.0619791 7.42159281,5.50700918 C7.87701929,4.95203927 8.10473253,4.32083722 8.10473253,3.61340304 C8.10473253,2.5034632 7.76083906,1.6237444 7.07305213,0.974246641 C6.38526519,0.32474888 5.45582339,0 4.28472672,0 C3.54117327,0 2.86268076,0.155513548 2.24924917,0.466540645 C1.63581758,0.777567742 1.15560598,1.21361553 0.80861437,1.77468402 C0.461622763,2.33575251 0.288126959,2.97000385 0.288126959,3.67743803 L0.288126959,3.67743803 L0.790025533,3.67743803 C0.790025533,2.72606102 1.1184283,1.95764114 1.77523385,1.37217837 C2.43203939,0.786715598 3.26853701,0.493984212 4.28472672,0.493984212 C5.32570154,0.493984212 6.13896312,0.771469171 6.72451145,1.32643909 C7.31005979,1.88140901 7.60283396,2.63153318 7.60283396,3.57681161 C7.60283396,4.4062172 7.27598026,5.0892571 6.62227285,5.62593131 C5.96856545,6.16260551 5.11192992,6.44009047 4.05236627,6.45838619 L4.05236627,6.45838619 L2.91844726,6.45838619 L2.91844726,6.97066611 L3.97801092,6.97066611 C5.26064061,6.97676468 6.23500544,7.23900321 6.90110539,7.75738171 C7.56720535,8.2757602 7.90025533,9.02588438 7.90025533,10.0077542 C7.90025533,11.0018212 7.58889233,11.7809136 6.96616632,12.3450314 C6.34344031,12.9091492 5.47751037,13.191208 4.36837648,13.191208 C3.25304631,13.191208 2.32980079,12.8695084 1.5986399,12.2261093 C0.867479017,11.5827101 0.501898574,10.7731248 0.501898574,9.79735355 L0.501898574,9.79735355 L0,9.79735355 C0,10.5474777 0.176593943,11.2091726 0.529781828,11.7824383 C0.882969714,12.3557039 1.40655526,12.816146 2.10053848,13.1637645 C2.79452169,13.511383 3.55046769,13.6851923 4.36837648,13.6851923 Z M10.6606975,15.8349384 C11.2927179,15.1701942 11.6211207,14.3529857 11.6459058,13.383313 L11.6459058,13.383313 L11.6459058,12.0477261 L11.1440072,12.0477261 L11.1347128,13.575418 C11.0913389,14.2523593 10.8187026,14.9079556 10.316804,15.542207 L10.316804,15.542207 L10.6606975,15.8349384 Z M16.4232367,13.5022351 L22.3809586,0.493984212 L22.3809586,0.182957116 L13.7371499,0.182957116 L13.7371499,0.676941328 L21.8047047,0.676941328 L15.9120437,13.5022351 L16.4232367,13.5022351 Z M29.147295,13.6851923 C30.3741582,13.6851923 31.3159925,13.3086055 31.9727981,12.5554321 C32.6296036,11.8022586 32.9580064,10.7029913 32.9580064,9.25763006 C32.9580064,8.01352167 32.5955241,7.0133561 31.8705595,6.25713336 C31.1455949,5.50091061 30.1758772,5.12279924 28.9614066,5.12279924 C28.4533118,5.12279924 27.9343734,5.20512994 27.4045916,5.36979135 C26.8748098,5.53445275 26.4488156,5.74790272 26.1266091,6.01014125 L26.1266091,6.01014125 L26.6749798,0.667793472 L32.8185901,0.667793472 L32.8185901,0.182957116 L26.2195533,0.182957116 L25.5875329,6.53156903 L25.968604,6.67793472 C26.3527733,6.31202049 26.7865128,6.04368339 27.2698225,5.87292342 C27.7531323,5.70216344 28.3200918,5.61678345 28.970701,5.61678345 C30.0302647,5.61678345 30.8745077,5.94915555 31.5034299,6.61389973 C32.1323522,7.27864392 32.4468134,8.16598593 32.4468134,9.27592577 C32.4468134,10.5627241 32.1757262,11.5369708 31.6335518,12.1986657 C31.0913774,12.8603606 30.2626251,13.191208 29.147295,13.191208 C28.1001239,13.191208 27.2791169,12.9198217 26.6842742,12.3770489 C26.0894314,11.8342761 25.7424398,11.0414619 25.6432994,9.99860637 L25.6432994,9.99860637 L25.1321064,9.99860637 C25.2250506,11.1512362 25.6278087,12.0538246 26.3403807,12.7063717 C27.0529528,13.3589187 27.9885909,13.6851923 29.147295,13.6851923 Z M39.1852665,13.6851923 C40.3997371,13.6851923 41.375651,13.3497709 42.1130081,12.6789281 C42.8503653,12.0080854 43.2190439,11.1054969 43.2190439,9.97116281 C43.2190439,9.09296865 42.9696437,8.37638662 42.4708432,7.8214167 C41.9720428,7.26644678 41.2796087,6.88833541 40.3935408,6.68708258 C41.1680756,6.4553369 41.7830563,6.0619791 42.2384828,5.50700918 C42.6939093,4.95203927 42.9216225,4.32083722 42.9216225,3.61340304 C42.9216225,2.5034632 42.577729,1.6237444 41.8899421,0.974246641 C41.2021552,0.32474888 40.2727134,0 39.1016167,0 C38.3580633,0 37.6795707,0.155513548 37.0661391,0.466540645 C36.4527076,0.777567742 35.972496,1.21361553 35.6255043,1.77468402 C35.2785127,2.33575251 35.1050169,2.97000385 35.1050169,3.67743803 L35.1050169,3.67743803 L35.6069155,3.67743803 C35.6069155,2.72606102 35.9353183,1.95764114 36.5921238,1.37217837 C37.2489294,0.786715598 38.085427,0.493984212 39.1016167,0.493984212 C40.1425915,0.493984212 40.9558531,0.771469171 41.5414014,1.32643909 C42.1269498,1.88140901 42.4197239,2.63153318 42.4197239,3.57681161 C42.4197239,4.4062172 42.0928702,5.0892571 41.4391628,5.62593131 C40.7854554,6.16260551 39.9288199,6.44009047 38.8692562,6.45838619 L38.8692562,6.45838619 L37.7353372,6.45838619 L37.7353372,6.97066611 L38.7949009,6.97066611 C40.0775306,6.97676468 41.0518954,7.23900321 41.7179954,7.75738171 C42.3840953,8.2757602 42.7171453,9.02588438 42.7171453,10.0077542 C42.7171453,11.0018212 42.4057823,11.7809136 41.7830563,12.3450314 C41.1603303,12.9091492 40.2944003,13.191208 39.1852665,13.191208 C38.0699363,13.191208 37.1466908,12.8695084 36.4155299,12.2261093 C35.684369,11.5827101 35.3187886,10.7731248 35.3187886,9.79735355 L35.3187886,9.79735355 L34.81689,9.79735355 C34.81689,10.5474777 34.9934839,11.2091726 35.3466718,11.7824383 C35.6998597,12.3557039 36.2234452,12.816146 36.9174285,13.1637645 C37.6114117,13.511383 38.3673577,13.6851923 39.1852665,13.6851923 Z" id="3,753" fill="#304254" fill-rule="nonzero"></path>
            <text id="Title" font-family="IBMPlexSerif-Light, IBM Plex Serif" font-size="7" font-weight="300" fill="#849CB4">
                <tspan x="14.1883676" y="26.3626358">Title</tspan>
            </text>
        </g>
    </g>
</svg>
